X:1
T:Title
%%score { ( 1 3 ) | ( 2 4 ) }
L:1/8
M:4/4
K:Bb
V:1 treble nm="Grand Piano"
V:3 treble 
V:2 bass 
V:4 bass 
V:1
 z4 z2[Q:1/4=100] [DF]>[DF] | [DB]2 [DB]>[DB] [DB]2 [FA]>[EG] | %2
 F>G [B,DF]>[K:bass][F,B,D] [B,DF]2 [F,B,D]>[K:treble][B,DF] | z2 [CE]4 z2 | z2 [DF]4 z2 | %5
 [DB]2 [DB]>[DB] [DB]2 [FA]>[A,EG] |[M:9/8] [B,DF]2 [B,DF]- [B,DF]/[F,B,D]/ [B,DF]2- [B,DF]F/=ED/ | %7
[M:4/4] C2 [CAc]2 [CFA]2 [B,=EG]2 |[M:7/8] F-F-F- F- F3 |[M:1/4] (3FGA | %10
[M:4/4] B>B B2 [DB]2 [Dd]2 | B->[DB-] [EB-][EB-] [DB]2 (3FAB | c>c c2 [=Ec]2 [Ed]2 |[M:3/4] c6 | %14
[M:1/4] (3F[FB]c |[M:4/4] .d>.d d2 z2 (3Bcd |[M:3/4] .[Ge]>.[Ge] .[Ge]2 z2 |[M:1/4] [Gd][Gc] | %18
[M:4/4] B B3 c2 F2 |[M:3/4] [Fd]6 |[M:1/4] (3F[FB]c |[M:4/4] .d>.d d2 z2 (3Bcd | %22
[M:3/4] .[Ge]>.[Ge] .[Ge]2 z2 |[M:1/4] [B=e][Be] | %24
[M:4/4] [Bf] [Bf]3 .[Fd]2 .[Ec]2[Q:1/4=98][Q:1/4=97][Q:1/4=95][Q:1/4=94][Q:1/4=92][Q:1/4=91][Q:1/4=89][Q:1/4=88][Q:1/4=86][Q:1/4=84][Q:1/4=83][Q:1/4=81][Q:1/4=80][Q:1/4=78][Q:1/4=77] | %25
[M:9/8] [DB]8- [DB] |] %26
V:2
 z4 z2 [B,,B,]>[B,,B,] | [B,,F,]2 [B,,F,]>[B,,F,] [B,,F,]2 [B,,G,]>[B,,A,] | %2
 [B,D]2 B,,>B,, B,,2 B,,>B,, | F,>F, F,>F, F,2 [F,A,C]>[F,A,E] | %4
 [B,,B,]>[B,,B,] [B,,B,]>B,, B,,2 [B,,B,]>[B,,B,] | [B,,F,]2 [B,,F,]>[B,,F,] [B,,F,]2 [B,,G,]>B,, | %6
[M:9/8] z z/ G/B,,- B,,/B,,/ B,,2- B,,F,/=E,D,/ |[M:4/4] C,2 C,2 C,2 C,2 |[M:7/8] z2 A, B, C3 | %9
[M:1/4] (3F,G,A, |[M:4/4] [B,D]>[B,D] [B,D]2 [B,,B,]2 [B,,B,]2 | %11
 [B,,F,]>[B,,F,] [B,,G,][B,,G,] [B,,F,]2 (3[F,A,][F,CF][F,G,F] | %12
 [F,A,F]>[F,A,F] [F,A,F]2 [C,B,]2 [C,B,]2 |[M:3/4] [F,A,F]>[F,A,] [G,B,][G,B,] [A,C]2 | %14
[M:1/4] (3[F,A,][D,B,][K:treble][F,A,F] |[M:4/4] .[B,F]>.[B,F] [B,F]2 z2 (3B,[B,A][B,_A] | %16
[M:3/4][K:bass] .[E,B,]>.[E,B,] .[E,B,]2 z2 |[M:1/4] [E,E][E,E] | %18
[M:4/4] [F,DF] [F,DF]3 [F,A,E]2 [F,A,E]2 |[M:3/4] [B,,B,]6 | %20
[M:1/4] (3[F,A,][D,B,][K:treble][F,A,F] |[M:4/4] .[B,F]>.[B,F] [B,F]2 z2 (3B,[B,A][B,_A] | %22
[M:3/4][K:bass] .[E,B,]>.[E,B,] .[E,B,]2 z2 |[M:1/4] [C,C][C,C] | %24
[M:4/4] [F,D] [F,D]3 .[F,B,]2 .[F,A,]2 |[M:9/8] [B,,F,]8- [B,,F,] |] %26
V:3
 x8 | x8 | x7/2[K:bass] x4[K:treble] x/ | [B,DF]>[A,CE] A,>A, A,2 E>G | %4
 [EG]>[DF] z z/ B,/ B,2 [DF]>[DF] | x8 |[M:9/8] x9 |[M:4/4] x8 |[M:7/8] A,2 C D E3 |[M:1/4] x2 | %10
[M:4/4] x8 | D2 z2 z4 | x8 |[M:3/4] z z/ F/ =EE F2 |[M:1/4] x2 |[M:4/4] x8 |[M:3/4] x6 | %17
[M:1/4] x2 |[M:4/4] x8 |[M:3/4] x6 |[M:1/4] x2 |[M:4/4] x8 |[M:3/4] x6 |[M:1/4] x2 |[M:4/4] x8 | %25
[M:9/8] x9 |] %26
V:4
 x8 | x8 | x8 | x8 | x8 | x8 |[M:9/8] .B,,3 z3 z3 |[M:4/4] x8 |[M:7/8] F,-F,-F,- F,- F,3 | %9
[M:1/4] x2 |[M:4/4] x8 | x8 | x8 |[M:3/4] x6 |[M:1/4] x4/3[K:treble] x2/3 |[M:4/4] x8 | %16
[M:3/4][K:bass] x6 |[M:1/4] x2 |[M:4/4] x8 |[M:3/4] x6 |[M:1/4] x4/3[K:treble] x2/3 |[M:4/4] x8 | %22
[M:3/4][K:bass] x6 |[M:1/4] x2 |[M:4/4] x8 |[M:9/8] x9 |] %26

